images/logo.svg

<svg width="56" height="75" viewBox="0 0 56 75" fill="none" xmlns="http://www.w3.org/2000/svg">
<path d="M0.88 69C0.826667 69 0.8 68.9667 0.8 68.9L0.84 55.16C0.84 55.1067 0.866667 55.08 0.92 55.08H4.96C5.68 55.08 6.34 55.26 6.94 55.62C7.55333 55.9667 8.04 56.44 8.4 57.04C8.76 57.6267 8.94 58.2933 8.94 59.04C8.94 59.5333 8.86667 59.98 8.72 60.38C8.57333 60.7667 8.4 61.1 8.2 61.38C8 61.6467 7.82 61.8467 7.66 61.98C8.38 62.78 8.74 63.72 8.74 64.8L8.76 68.9C8.76 68.9667 8.72667 69 8.66 69H6.4C6.34667 69 6.32 68.98 6.32 68.94V64.8C6.32 64.32 6.14667 63.9067 5.8 63.56C5.46667 63.2 5.05333 63.02 4.56 63.02H3.24L3.22 68.9C3.22 68.9667 3.19333 69 3.14 69H0.88ZM3.24 60.62H4.96C5.37333 60.62 5.74 60.4667 6.06 60.16C6.38 59.8533 6.54 59.48 6.54 59.04C6.54 58.6133 6.38 58.2467 6.06 57.94C5.75333 57.6333 5.38667 57.48 4.96 57.48H3.24V60.62ZM10.5284 69C10.4751 69 10.4484 68.9667 10.4484 68.9L10.4684 55.16C10.4684 55.1067 10.4951 55.08 10.5484 55.08H16.9684C17.0218 55.08 17.0484 55.1133 17.0484 55.18V57.42C17.0484 57.4733 17.0218 57.5 16.9684 57.5H12.8684V60.62H16.9684C17.0218 60.62 17.0484 60.6467 17.0484 60.7L17.0684 62.96C17.0684 63.0133 17.0418 63.04 16.9884 63.04H12.8684V66.54H16.9884C17.0418 66.54 17.0684 66.5733 17.0684 66.64V68.92C17.0684 68.9733 17.0418 69 16.9884 69H10.5284ZM22.2144 69.2C21.481 69.2 20.8144 69.02 20.2144 68.66C19.6277 68.2867 19.161 67.7933 18.8144 67.18C18.4677 66.5667 18.2944 65.88 18.2944 65.12L18.3144 58.88C18.3144 58.1467 18.481 57.48 18.8144 56.88C19.161 56.2667 19.6277 55.78 20.2144 55.42C20.8144 55.0467 21.481 54.86 22.2144 54.86C22.9477 54.86 23.6077 55.04 24.1944 55.4C24.781 55.76 25.2477 56.2467 25.5944 56.86C25.941 57.46 26.1144 58.1333 26.1144 58.88V59.8C26.1144 59.8533 26.0877 59.88 26.0344 59.88H23.7944C23.741 59.88 23.7144 59.8533 23.7144 59.8V58.88C23.7144 58.44 23.5677 58.06 23.2744 57.74C22.9944 57.42 22.641 57.26 22.2144 57.26C21.7344 57.26 21.3677 57.4267 21.1144 57.76C20.861 58.08 20.7344 58.4533 20.7344 58.88V65.12C20.7344 65.6133 20.8744 66.0133 21.1544 66.32C21.4477 66.6267 21.801 66.78 22.2144 66.78C22.641 66.78 22.9944 66.6133 23.2744 66.28C23.5677 65.9333 23.7144 65.5467 23.7144 65.12V64.2C23.7144 64.1467 23.741 64.12 23.7944 64.12H26.0544C26.1077 64.12 26.1344 64.1467 26.1344 64.2V65.12C26.1344 65.88 25.9544 66.5667 25.5944 67.18C25.2477 67.7933 24.781 68.2867 24.1944 68.66C23.6077 69.02 22.9477 69.2 22.2144 69.2ZM31.2969 69.2C30.5769 69.2 29.9169 69.02 29.3169 68.66C28.7302 68.2867 28.2569 67.8 27.8969 67.2C27.5369 66.5867 27.3569 65.9133 27.3569 65.18L27.3769 58.84C27.3769 58.1067 27.5502 57.44 27.8969 56.84C28.2569 56.24 28.7369 55.76 29.3369 55.4C29.9369 55.04 30.5902 54.86 31.2969 54.86C32.0169 54.86 32.6702 55.04 33.2569 55.4C33.8435 55.76 34.3102 56.24 34.6569 56.84C35.0169 57.44 35.1969 58.1067 35.1969 58.84L35.2169 65.18C35.2169 65.9133 35.0369 66.5867 34.6769 67.2C34.3302 67.8 33.8569 68.2867 33.2569 68.66C32.6702 69.02 32.0169 69.2 31.2969 69.2ZM31.2969 66.78C31.6969 66.78 32.0435 66.62 32.3369 66.3C32.6435 65.9667 32.7969 65.5933 32.7969 65.18L32.7769 58.84C32.7769 58.4 32.6369 58.0267 32.3569 57.72C32.0769 57.4133 31.7235 57.26 31.2969 57.26C30.8835 57.26 30.5302 57.4133 30.2369 57.72C29.9435 58.0133 29.7969 58.3867 29.7969 58.84V65.18C29.7969 65.62 29.9435 66 30.2369 66.32C30.5302 66.6267 30.8835 66.78 31.2969 66.78ZM36.8175 69C36.7642 69 36.7375 68.9667 36.7375 68.9L36.7775 55.16C36.7775 55.1067 36.8042 55.08 36.8575 55.08H40.8975C41.6175 55.08 42.2775 55.26 42.8775 55.62C43.4908 55.9667 43.9775 56.44 44.3375 57.04C44.6975 57.6267 44.8775 58.2933 44.8775 59.04C44.8775 59.5333 44.8042 59.98 44.6575 60.38C44.5108 60.7667 44.3375 61.1 44.1375 61.38C43.9375 61.6467 43.7575 61.8467 43.5975 61.98C44.3175 62.78 44.6775 63.72 44.6775 64.8L44.6975 68.9C44.6975 68.9667 44.6642 69 44.5975 69H42.3375C42.2842 69 42.2575 68.98 42.2575 68.94V64.8C42.2575 64.32 42.0842 63.9067 41.7375 63.56C41.4042 63.2 40.9908 63.02 40.4975 63.02H39.1775L39.1575 68.9C39.1575 68.9667 39.1308 69 39.0775 69H36.8175ZM39.1775 60.62H40.8975C41.3108 60.62 41.6775 60.4667 41.9975 60.16C42.3175 59.8533 42.4775 59.48 42.4775 59.04C42.4775 58.6133 42.3175 58.2467 41.9975 57.94C41.6908 57.6333 41.3242 57.48 40.8975 57.48H39.1775V60.62ZM46.4859 69C46.4193 69 46.3859 68.9667 46.3859 68.9L46.4259 55.16C46.4259 55.1067 46.4526 55.08 46.5059 55.08L50.2459 55.06C50.9793 55.0467 51.6459 55.22 52.2459 55.58C52.8593 55.94 53.3459 56.4267 53.7059 57.04C54.0659 57.64 54.2459 58.3067 54.2459 59.04V64.78C54.2459 65.5533 54.0593 66.26 53.6859 66.9C53.3126 67.5267 52.8126 68.0267 52.1859 68.4C51.5593 68.7733 50.8526 68.9667 50.0659 68.98L46.4859 69ZM48.8259 66.54H50.0659C50.5593 66.54 50.9726 66.3667 51.3059 66.02C51.6526 65.6733 51.8259 65.26 51.8259 64.78V59.02C51.8259 58.5933 51.6659 58.2267 51.3459 57.92C51.0393 57.6 50.6726 57.4467 50.2459 57.46L48.8459 57.48L48.8259 66.54Z" fill="#2F3035"/>
<path d="M45.0441 7.95599C44.3406 7.2526 43.2364 7.14888 42.4141 7.70921C39.3162 9.82072 23.7781 20.4384 22.1082 22.1082C19.6866 24.53 19.6866 28.4702 22.1082 30.8919C23.319 32.1027 24.9097 32.7081 26.5001 32.7081C28.0905 32.7081 29.681 32.1027 30.8919 30.8919C32.5618 29.222 43.1794 13.6839 45.291 10.5861C45.8511 9.76389 45.7475 8.65958 45.0441 7.95599ZM27.9639 27.964C27.1568 28.7713 25.8433 28.7713 25.0362 27.964C24.2289 27.1569 24.2288 25.8438 25.0357 25.0366C25.6846 24.3954 30.0961 21.2492 35.5239 17.4763C31.7511 22.9041 28.6049 27.3154 27.9639 27.964Z" fill="#2F3035"/>
<path d="M9.54735 36.1294L6.99155 37.3762C5.12144 34.0386 4.14062 30.3134 4.14062 26.5C4.14062 23.706 4.65582 21.03 5.59605 18.5621L8.52461 19.9668C8.81342 20.1053 9.11828 20.171 9.41858 20.171C10.1901 20.171 10.9307 19.7377 11.2867 18.9955C11.7811 17.9646 11.3463 16.7279 10.3153 16.2334L7.42393 14.8465C11.0177 8.98547 17.2356 4.89919 24.4298 4.23565V7.34951C24.4298 8.49294 25.3567 9.41982 26.5001 9.41982C27.6435 9.41982 28.5704 8.49294 28.5704 7.34951V4.2341C31.037 4.45863 33.4236 5.08676 35.6893 6.10949C36.7312 6.57997 37.9575 6.11632 38.428 5.07444C38.8985 4.03224 38.435 2.8061 37.3928 2.33562C33.9596 0.78589 30.2948 0 26.5 0C19.4216 0 12.7669 2.75641 7.7616 7.7616C2.75652 12.7669 0 19.4216 0 26.5C0 31.7306 1.55253 36.8178 4.48978 41.2111C4.88542 41.8027 5.53954 42.131 6.21218 42.131C6.51796 42.131 6.82768 42.0632 7.11867 41.9212L11.3628 39.8509C12.3905 39.3496 12.8172 38.1102 12.3159 37.0825C11.8145 36.0549 10.5751 35.6283 9.54735 36.1294Z" fill="#2F3035"/>
<path d="M50.6643 15.6073C50.194 14.5652 48.968 14.1015 47.9255 14.5721C46.8834 15.0426 46.42 16.2688 46.8905 17.3109C48.1971 20.2049 48.8594 23.2966 48.8594 26.5C48.8594 30.3191 47.8754 34.0504 45.9998 37.3917L43.3315 36.1211C42.2994 35.6296 41.0639 36.0678 40.5722 37.1002C40.0806 38.1325 40.519 39.368 41.5514 39.8596L45.899 41.9299C46.185 42.066 46.4882 42.1311 46.788 42.1311C47.4608 42.1311 48.1151 41.8024 48.5102 41.2113C51.4475 36.8179 53.0001 31.7307 53.0001 26.5C53.0001 22.7053 52.2142 19.0404 50.6643 15.6073Z" fill="#2F3035"/>
</svg>

<svg width="56" height="75" fill="none" xmlns="http://www.w3.org/2000/svg"><path d="M.88 69c-.053 0-.08-.033-.08-.1l.04-13.74c0-.053.027-.08.08-.08h4.04c.72 0 1.38.18 1.98.54.613.347 1.1.82 1.46 1.42.36.587.54 1.253.54 2 0 .493-.073.94-.22 1.34-.147.387-.32.72-.52 1-.2.267-.38.467-.54.6.72.8 1.08 1.74 1.08 2.82l.02 4.1c0 .067-.033.1-.1.1H6.4c-.053 0-.08-.02-.08-.06V64.8c0-.48-.173-.893-.52-1.24a1.622 1.622 0 00-1.24-.54H3.24l-.02 5.88c0 .067-.027.1-.08.1H.88zm2.36-8.38h1.72c.413 0 .78-.153 1.1-.46.32-.307.48-.68.48-1.12 0-.427-.16-.793-.48-1.1a1.5 1.5 0 00-1.1-.46H3.24v3.14zM10.528 69c-.053 0-.08-.033-.08-.1l.02-13.74c0-.053.027-.08.08-.08h6.42c.054 0 .08.033.08.1v2.24c0 .053-.026.08-.08.08h-4.1v3.12h4.1c.054 0 .08.027.08.08l.02 2.26c0 .053-.026.08-.08.08h-4.12v3.5h4.12c.054 0 .08.033.08.1v2.28c0 .053-.026.08-.08.08h-6.46zm11.686.2c-.733 0-1.4-.18-2-.54a4.14 4.14 0 01-1.4-1.48 4.119 4.119 0 01-.52-2.06l.02-6.24c0-.733.167-1.4.5-2 .347-.613.814-1.1 1.4-1.46a3.71 3.71 0 012-.56c.734 0 1.394.18 1.98.54a3.98 3.98 0 011.4 1.46c.347.6.52 1.273.52 2.02v.92c0 .053-.026.08-.08.08h-2.24c-.053 0-.08-.027-.08-.08v-.92c0-.44-.146-.82-.44-1.14-.28-.32-.633-.48-1.06-.48-.48 0-.846.167-1.1.5-.253.32-.38.693-.38 1.12v6.24c0 .493.14.893.42 1.2.294.307.647.46 1.06.46.427 0 .78-.167 1.06-.5.294-.347.44-.733.44-1.16v-.92c0-.053.027-.08.08-.08h2.26c.054 0 .08.027.08.08v.92c0 .76-.18 1.447-.54 2.06a4.142 4.142 0 01-1.4 1.48 3.71 3.71 0 01-1.98.54zm9.083 0c-.72 0-1.38-.18-1.98-.54a4.373 4.373 0 01-1.42-1.46 3.918 3.918 0 01-.54-2.02l.02-6.34c0-.733.173-1.4.52-2 .36-.6.84-1.08 1.44-1.44a3.74 3.74 0 011.96-.54c.72 0 1.373.18 1.96.54.587.36 1.053.84 1.4 1.44.36.6.54 1.267.54 2l.02 6.34c0 .733-.18 1.407-.54 2.02-.347.6-.82 1.087-1.42 1.46-.587.36-1.24.54-1.96.54zm0-2.42c.4 0 .747-.16 1.04-.48.306-.333.46-.707.46-1.12l-.02-6.34c0-.44-.14-.813-.42-1.12a1.374 1.374 0 00-1.06-.46c-.413 0-.767.153-1.06.46-.293.293-.44.667-.44 1.12v6.34c0 .44.146.82.44 1.14.293.307.647.46 1.06.46zm5.52 2.22c-.053 0-.08-.033-.08-.1l.04-13.74c0-.053.027-.08.08-.08h4.04c.72 0 1.38.18 1.98.54.614.347 1.1.82 1.46 1.42.36.587.54 1.253.54 2 0 .493-.073.94-.22 1.34-.146.387-.32.72-.52 1-.2.267-.38.467-.54.6.72.8 1.08 1.74 1.08 2.82l.02 4.1c0 .067-.033.1-.1.1h-2.26c-.053 0-.08-.02-.08-.06V64.8c0-.48-.173-.893-.52-1.24a1.622 1.622 0 00-1.24-.54h-1.32l-.02 5.88c0 .067-.026.1-.08.1h-2.26zm2.36-8.38h1.72c.414 0 .78-.153 1.1-.46.32-.307.48-.68.48-1.12 0-.427-.16-.793-.48-1.1a1.5 1.5 0 00-1.1-.46h-1.72v3.14zM46.486 69c-.067 0-.1-.033-.1-.1l.04-13.74c0-.053.027-.08.08-.08l3.74-.02c.733-.013 1.4.16 2 .52.613.36 1.1.847 1.46 1.46.36.6.54 1.267.54 2v5.74a4.13 4.13 0 01-.56 2.12 4.253 4.253 0 01-1.5 1.5c-.627.373-1.333.567-2.12.58l-3.58.02zm2.34-2.46h1.24a1.65 1.65 0 001.24-.52c.347-.347.52-.76.52-1.24v-5.76c0-.427-.16-.793-.48-1.1a1.405 1.405 0 00-1.1-.46l-1.4.02-.02 9.06zM45.044 7.956a2.07 2.07 0 00-2.63-.247c-3.098 2.112-18.636 12.73-20.306 14.4a6.218 6.218 0 000 8.783 6.192 6.192 0 004.392 1.816c1.59 0 3.181-.605 4.392-1.816 1.67-1.67 12.287-17.208 14.399-20.306a2.07 2.07 0 00-.247-2.63zm-17.08 20.008a2.072 2.072 0 01-2.928 0 2.072 2.072 0 010-2.927c.649-.642 5.06-3.788 10.488-7.56-3.773 5.427-6.92 9.838-7.56 10.487z" fill="#2F3035"/><path d="M9.547 36.13l-2.555 1.246a22.251 22.251 0 01-1.396-18.814l2.929 1.405a2.07 2.07 0 001.79-3.733l-2.891-1.387c3.594-5.862 9.812-9.948 17.006-10.611V7.35a2.07 2.07 0 104.14 0V4.234a22.14 22.14 0 017.12 1.875 2.07 2.07 0 001.703-3.773A26.299 26.299 0 0026.5 0C19.422 0 12.767 2.756 7.762 7.762 2.757 12.767 0 19.422 0 26.5c0 5.23 1.553 10.318 4.49 14.711a2.07 2.07 0 002.629.71l4.244-2.07a2.07 2.07 0 10-1.816-3.722zm41.117-20.523a2.07 2.07 0 10-3.773 1.704 22.181 22.181 0 011.968 9.189c0 3.82-.984 7.55-2.86 10.892l-2.668-1.27a2.07 2.07 0 00-1.78 3.738l4.348 2.07a2.07 2.07 0 002.611-.719C51.448 36.818 53 31.731 53 26.5c0-3.795-.786-7.46-2.336-10.893z" fill="#2F3035"/></svg>
